art/ports.svg

<?xml version="1.0" encoding="utf-8"?>
<!-- Generator: Adobe Illustrator 16.0.3, SVG Export Plug-In . SVG Version: 6.00 Build 0)  -->
<!DOCTYPE svg PUBLIC "-//W3C//DTD SVG 1.1//EN" "http://www.w3.org/Graphics/SVG/1.1/DTD/svg11.dtd">
<svg version="1.1" id="Ebene_1" xmlns="http://www.w3.org/2000/svg" xmlns:xlink="http://www.w3.org/1999/xlink" x="0px" y="0px"
	 width="566.929px" height="150.848px" viewBox="0 0 566.929 150.848" enable-background="new 0 0 566.929 150.848"
	 xml:space="preserve">
<g>
	<g>
		<g>
			<path d="M79.797,76.046c8.316-9.721,20.664-15.885,34.457-15.885c2.767,0,5.474,0.262,8.103,0.734
				c1.774-4.851,2.742-10.091,2.742-15.557C125.098,20.299,104.794,0,79.755,0C54.712,0,34.413,20.299,34.413,45.341
				c0,5.473,0.975,10.716,2.751,15.57c2.654-0.483,5.384-0.75,8.179-0.75C59.136,60.163,71.48,66.328,79.797,76.046z
				 M122.356,60.898c-5.442,14.897-18.476,26.131-34.415,29.042c1.774,4.854,2.744,10.099,2.744,15.563
				c0,11.251-4.105,21.533-10.886,29.456c8.315,9.721,20.661,15.889,34.454,15.889c25.043,0,45.343-20.301,45.343-45.345
				C159.596,83.229,143.531,64.72,122.356,60.898z M71.654,89.949c-15.973-2.884-29.035-14.128-34.49-29.036
				C16.029,64.764,0,83.257,0,105.503c0,25.044,20.302,45.345,45.342,45.345c13.794,0,26.14-6.168,34.456-15.886
				c-6.78-7.926-10.885-18.208-10.885-29.456C68.914,100.039,69.882,94.799,71.654,89.949z M71.654,89.949
				c2.63,0.476,5.334,0.731,8.102,0.731c2.796,0,5.53-0.259,8.186-0.742c-1.875-5.135-4.659-9.819-8.144-13.895
				C76.311,80.119,73.529,84.817,71.654,89.949z"/>
		</g>
	</g>
	<g>
		<path d="M253.196,55.925c0,8.903-3.024,15.729-9.072,20.476c-6.048,4.746-14.615,7.119-25.703,7.119h-14.237v38.05h-6.426V29.466
			h22.553C242.235,29.466,253.196,38.285,253.196,55.925z M204.184,77.975h12.663c10.373,0,17.87-1.711,22.49-5.135
			c4.619-3.423,6.929-8.979,6.929-16.663c0-7.097-2.184-12.357-6.551-15.781c-4.369-3.422-11.13-5.134-20.286-5.134h-15.245V77.975
			L204.184,77.975z"/>
		<path d="M350.654,75.392c0,14.616-3.652,26.177-10.962,34.681c-7.31,8.508-17.387,12.76-30.237,12.76
			c-12.812,0-22.869-4.252-30.178-12.76c-7.308-8.504-10.961-20.104-10.961-34.807c0-14.656,3.686-26.196,11.056-34.618
			c7.372-8.42,17.44-12.631,30.208-12.631c12.854,0,22.91,4.232,30.178,12.694C347.021,49.175,350.654,60.735,350.654,75.392z
			 M275.309,75.392c0,13.188,2.939,23.381,8.819,30.587c5.879,7.202,14.322,10.805,25.326,10.805
			c11.088,0,19.562-3.567,25.42-10.711c5.855-7.14,8.787-17.363,8.787-30.681c0-13.271-2.932-23.444-8.787-30.521
			c-5.858-7.077-14.291-10.615-25.295-10.615c-10.961,0-19.414,3.569-25.355,10.71C278.28,52.104,275.309,62.248,275.309,75.392z"/>
		<path d="M378.248,81.44v40.13h-6.428V29.466h21.924c11.426,0,19.868,2.11,25.33,6.331c5.459,4.221,8.188,10.574,8.188,19.057
			c0,6.175-1.627,11.383-4.881,15.624c-3.256,4.243-8.196,7.288-14.836,9.137l25.01,41.956h-7.684L401.115,81.44H378.248
			L378.248,81.44z M378.248,75.896h17.576c7.77,0,13.797-1.73,18.082-5.196c4.284-3.466,6.428-8.577,6.428-15.341
			c0-7.014-2.103-12.115-6.299-15.309c-4.201-3.19-11.051-4.788-20.543-4.788h-15.244V75.896z"/>
		<path d="M472.494,121.57h-6.488V35.514H436.08v-6.048h66.338v6.048h-29.924V121.57L472.494,121.57z"/>
		<path d="M566.929,97.819c0,7.688-2.826,13.777-8.477,18.271c-5.648,4.493-13.154,6.74-22.521,6.74
			c-11.256,0-19.887-1.24-25.893-3.72v-6.426c6.637,2.814,15.098,4.223,25.387,4.223c7.563,0,13.557-1.732,17.988-5.195
			c4.43-3.467,6.645-8.014,6.645-13.643c0-3.482-0.734-6.372-2.209-8.661c-1.467-2.287-3.859-4.378-7.178-6.269
			c-3.32-1.891-8.188-3.929-14.617-6.111c-9.406-3.231-15.904-6.729-19.498-10.486c-3.592-3.759-5.387-8.77-5.387-15.026
			c0-6.887,2.697-12.504,8.098-16.851c5.396-4.349,12.334-6.521,20.818-6.521c8.652,0,16.777,1.639,24.381,4.913l-2.332,5.544
			c-7.645-3.19-14.951-4.788-21.922-4.788c-6.803,0-12.221,1.576-16.252,4.728c-4.035,3.148-6.049,7.434-6.049,12.852
			c0,3.401,0.617,6.195,1.854,8.379c1.238,2.186,3.27,4.147,6.078,5.892c2.814,1.741,7.646,3.832,14.49,6.269
			c7.182,2.479,12.578,4.881,16.191,7.213c3.605,2.33,6.244,4.978,7.902,7.938C566.097,90.04,566.929,93.619,566.929,97.819z"/>
	</g>
</g>
</svg>

<?xml version="1.0" standalone="no"?><!-- Generator: Gravit.io --><svg xmlns="http://www.w3.org/2000/svg" xmlns:xlink="http://www.w3.org/1999/xlink" style="isolation:isolate" viewBox="0 0 566.929 150.848" width="566.929" height="150.848"><g id="null"><g id="null"><path d=" M 79.797 76.046 C 88.113 66.325 100.461 60.161 114.254 60.161 C 117.021 60.161 119.728 60.423 122.357 60.894 C 124.131 56.043 125.099 50.803 125.099 45.337 C 125.098 20.299 104.794 0 79.755 0 C 54.712 0 34.413 20.299 34.413 45.341 C 34.413 50.814 35.388 56.057 37.164 60.911 C 39.818 60.428 42.548 60.161 45.343 60.161 C 59.136 60.163 71.48 66.328 79.797 76.046 Z  M 122.356 60.898 C 116.914 75.795 103.88 87.029 87.941 89.94 C 89.715 94.794 90.685 100.04 90.685 105.503 C 90.685 116.754 86.58 127.036 79.799 134.959 C 88.114 144.68 100.46 150.848 114.253 150.848 C 139.296 150.848 159.596 130.547 159.596 105.503 C 159.596 83.229 143.531 64.72 122.356 60.898 Z  M 71.654 89.949 C 55.681 87.064 42.619 75.82 37.164 60.913 C 16.029 64.764 0 83.257 0 105.503 C 0 130.547 20.302 150.848 45.342 150.848 C 59.136 150.848 71.482 144.68 79.798 134.962 C 73.018 127.036 68.913 116.754 68.913 105.506 C 68.914 100.039 69.882 94.799 71.654 89.949 Z  M 71.654 89.949 C 74.284 90.425 76.988 90.679 79.756 90.679 C 82.552 90.679 85.286 90.42 87.942 89.937 C 86.067 84.802 83.283 80.119 79.798 76.042 C 76.311 80.119 73.529 84.817 71.654 89.949 Z " fill="rgb(255,255,255)"/></g></g><g id="null"><path d=" M 253.196 55.925 C 253.196 64.828 250.172 71.654 244.124 76.401 C 238.076 81.147 229.509 83.52 218.421 83.52 L 204.184 83.52 L 204.184 121.57 L 197.758 121.57 L 197.758 29.466 L 220.311 29.466 C 242.235 29.466 253.196 38.285 253.196 55.925 Z  M 204.184 77.975 L 216.847 77.975 C 227.22 77.975 234.717 76.264 239.337 72.84 C 243.956 69.417 246.266 63.861 246.266 56.177 C 246.266 49.08 244.082 43.82 239.715 40.396 C 235.346 36.974 228.585 35.262 219.429 35.262 L 204.184 35.262 L 204.184 77.975 L 204.184 77.975 L 204.184 77.975 Z " fill="rgb(255,255,255)"/><path d=" M 350.654 75.392 C 350.654 90.008 347.002 101.569 339.693 110.074 C 332.382 118.582 322.304 122.834 309.455 122.834 C 296.643 122.834 286.586 118.582 279.277 110.074 C 271.969 101.569 268.316 89.97 268.316 75.266 C 268.316 60.61 272.002 49.07 279.372 40.648 C 286.744 32.228 296.812 28.017 309.58 28.017 C 322.434 28.017 332.49 32.249 339.758 40.711 C 347.021 49.175 350.654 60.735 350.654 75.392 Z  M 275.309 75.392 C 275.309 88.58 278.248 98.773 284.128 105.979 C 290.007 113.181 298.45 116.785 309.454 116.785 C 320.542 116.785 329.015 113.218 334.874 106.074 C 340.728 98.933 343.661 88.711 343.661 75.392 C 343.661 62.121 340.727 51.949 334.874 44.871 C 329.015 37.794 320.583 34.256 309.579 34.256 C 298.618 34.256 290.165 37.825 284.224 44.966 C 278.28 52.104 275.309 62.248 275.309 75.392 Z " fill="rgb(255,255,255)"/><path d=" M 378.248 81.44 L 378.248 121.57 L 371.82 121.57 L 371.82 29.466 L 393.744 29.466 C 405.17 29.466 413.613 31.576 419.074 35.797 C 424.533 40.018 427.262 46.371 427.262 54.854 C 427.262 61.029 425.635 66.237 422.381 70.478 C 419.125 74.721 414.186 77.766 407.545 79.616 L 432.555 121.571 L 424.871 121.571 L 401.115 81.44 L 378.248 81.44 L 378.248 81.44 L 378.248 81.44 Z  M 378.248 75.896 L 395.824 75.896 C 403.594 75.896 409.621 74.167 413.906 70.701 C 418.191 67.234 420.334 62.124 420.334 55.359 C 420.334 48.345 418.232 43.245 414.035 40.05 C 409.834 36.86 402.984 35.262 393.492 35.262 L 378.248 35.262 L 378.248 75.896 L 378.248 75.896 Z " fill="rgb(255,255,255)"/><path d=" M 472.494 121.57 L 466.006 121.57 L 466.006 35.514 L 436.08 35.514 L 436.08 29.466 L 502.418 29.466 L 502.418 35.514 L 472.494 35.514 L 472.494 121.57 L 472.494 121.57 L 472.494 121.57 Z " fill="rgb(255,255,255)"/><path d=" M 566.929 97.819 C 566.929 105.507 564.103 111.596 558.452 116.09 C 552.804 120.583 545.298 122.83 535.931 122.83 C 524.675 122.83 516.044 121.59 510.038 119.109 L 510.038 112.683 C 516.675 115.497 525.136 116.907 535.425 116.907 C 542.988 116.907 548.982 115.175 553.413 111.712 C 557.843 108.245 560.058 103.698 560.058 98.068 C 560.058 94.587 559.324 91.696 557.849 89.408 C 556.382 87.121 553.99 85.029 550.671 83.138 C 547.351 81.247 542.483 79.209 536.054 77.027 C 526.648 73.797 520.15 70.298 516.556 66.542 C 512.964 62.783 511.169 57.771 511.169 51.516 C 511.169 44.629 513.866 39.012 519.267 34.665 C 524.663 30.315 531.601 28.144 540.085 28.144 C 548.737 28.144 556.862 29.784 564.466 33.057 L 562.134 38.601 C 554.489 35.412 547.183 33.813 540.212 33.813 C 533.409 33.813 527.991 35.389 523.96 38.542 C 519.925 41.689 517.911 45.976 517.911 51.394 C 517.911 54.795 518.528 57.589 519.765 59.773 C 521.003 61.96 523.035 63.92 525.843 65.666 C 528.657 67.406 533.489 69.498 540.333 71.935 C 547.515 74.414 552.911 76.816 556.524 79.148 C 560.128 81.478 562.766 84.127 564.424 87.086 C 566.097 90.04 566.929 93.619 566.929 97.819 Z " fill="rgb(255,255,255)"/></g></svg>
